P2
# Example occupancy map: depot-b. 0 = occupied, 255 = free.
24 16
255
0 0 0 0 0 0 0 0 0 0 0 0 0 0 0 0 0 0 0 0 0 0 0 0
0 255 255 255 255 255 255 255 255 255 255 255 255 255 255 255 255 255 255 255 255 255 255 0
0 255 255 255 255 255 255 255 255 255 255 255 255 255 255 255 255 255 255 255 255 255 255 0
0 255 255 255 255 255 255 255 255 255 255 255 255 255 255 255 255 255 255 255 255 255 255 0
0 255 255 255 255 255 255 255 255 255 255 255 255 255 255 255 255 255 255 255 255 255 255 0
0 255 255 255 0 0 0 0 0 0 0 0 0 0 0 0 0 0 0 255 255 255 255 0
0 255 255 255 0 255 255 255 255 255 255 255 255 255 255 255 255 255 0 255 255 255 255 0
0 255 255 255 0 255 255 255 255 255 255 255 255 255 255 255 255 255 0 255 255 255 255 0
0 255 255 255 0 255 255 255 255 255 255 255 255 255 255 255 255 255 0 255 255 255 255 0
0 255 255 255 0 255 255 255 255 255 255 255 255 255 255 255 255 255 0 255 255 255 255 0
0 255 255 255 0 255 255 255 255 255 255 255 255 255 255 255 255 255 0 255 255 255 255 0
0 255 255 255 0 0 0 0 0 0 0 0 0 0 0 0 0 0 0 255 255 255 255 0
0 255 255 255 255 255 255 255 255 255 255 255 255 255 255 255 255 255 255 255 255 255 255 0
0 255 255 255 255 255 255 255 255 255 255 255 255 255 255 255 255 255 255 255 255 255 255 0
0 255 255 255 255 255 255 255 255 255 255 255 255 255 255 255 255 255 255 255 255 255 255 0
0 0 0 0 0 0 0 0 0 0 0 0 0 0 0 0 0 0 0 0 0 0 0 0
