P2
# Example occupancy map: depot-a. 0 = occupied, 255 = free.
20 14
255
0 0 0 0 0 0 0 0 0 0 0 0 0 0 0 0 0 0 0 0
0 255 255 255 255 255 255 255 255 255 255 255 255 255 255 255 255 255 255 0
0 255 255 255 255 255 255 255 255 255 255 255 255 255 255 255 255 255 255 0
0 255 255 255 255 255 255 255 255 255 255 255 255 255 255 255 255 255 255 0
0 255 255 255 255 255 255 0 0 0 0 0 255 255 255 255 255 255 255 0
0 255 255 255 255 255 255 0 255 255 255 0 255 255 255 255 255 255 255 0
0 255 255 255 255 255 255 0 255 255 255 0 255 255 255 255 255 255 255 0
0 255 255 255 255 255 255 0 255 255 255 0 255 255 255 255 255 255 255 0
0 255 255 255 255 255 255 0 0 0 0 0 255 255 255 255 255 255 255 0
0 255 255 255 255 255 255 255 255 255 255 255 255 255 255 255 255 255 255 0
0 255 255 255 255 255 255 255 255 255 255 255 255 255 255 255 255 255 255 0
0 255 255 255 255 255 255 255 255 255 255 255 255 255 255 255 255 255 255 0
0 255 255 255 255 255 255 255 255 255 255 255 255 255 255 255 255 255 255 0
0 0 0 0 0 0 0 0 0 0 0 0 0 0 0 0 0 0 0 0
